assets/Low battery/Flat/low_battery_flat.svg

<svg width="32" height="32" viewBox="0 0 32 32" fill="none" xmlns="http://www.w3.org/2000/svg">
<path d="M13 4V2.79004C13 2.35231 13.3143 2 13.7048 2H18.2952C18.6857 2 19 2.35231 19 2.79004V4H22.23C23.21 4 24 4.78939 24 5.76864V28.2314C24 29.2106 23.21 30 22.23 30H9.77C8.79 30 8 29.2106 8 28.2314V5.76864C8 4.78939 8.79 4 9.77 4H13Z" fill="#9B9B9B"/>
<path d="M24 20H8V28H24V20Z" fill="#F92F60"/>
<path d="M15.5 9C15.2239 9 15 9.22386 15 9.5V11H13.5C13.2239 11 13 11.2239 13 11.5V12.5C13 12.7761 13.2239 13 13.5 13H15V14.5C15 14.7761 15.2239 15 15.5 15H16.5C16.7761 15 17 14.7761 17 14.5V13H18.5C18.7761 13 19 12.7761 19 12.5V11.5C19 11.2239 18.7761 11 18.5 11H17V9.5C17 9.22386 16.7761 9 16.5 9H15.5Z" fill="white"/>
<path d="M13 23.5C13 23.2239 13.2239 23 13.5 23H18.5C18.7761 23 19 23.2239 19 23.5V24.5C19 24.7761 18.7761 25 18.5 25H13.5C13.2239 25 13 24.7761 13 24.5V23.5Z" fill="white"/>
</svg>

<svg xmlns="http://www.w3.org/2000/svg" width="32" height="32" fill="none"><path fill="#9B9B9B" d="M13 4V2.79c0-.438.314-.79.705-.79h4.59c.39 0 .705.352.705.79V4h3.23c.98 0 1.77.79 1.77 1.769V28.23c0 .98-.79 1.769-1.77 1.769H9.77C8.79 30 8 29.21 8 28.231V5.77C8 4.789 8.79 4 9.77 4H13Z"/><path fill="#F92F60" d="M24 20H8v8h16v-8Z"/><path fill="#fff" d="M15.5 9a.5.5 0 0 0-.5.5V11h-1.5a.5.5 0 0 0-.5.5v1a.5.5 0 0 0 .5.5H15v1.5a.5.5 0 0 0 .5.5h1a.5.5 0 0 0 .5-.5V13h1.5a.5.5 0 0 0 .5-.5v-1a.5.5 0 0 0-.5-.5H17V9.5a.5.5 0 0 0-.5-.5h-1ZM13 23.5a.5.5 0 0 1 .5-.5h5a.5.5 0 0 1 .5.5v1a.5.5 0 0 1-.5.5h-5a.5.5 0 0 1-.5-.5v-1Z"/></svg>
